svg/u1f516.svg

<svg viewBox="0 0 128 128" xmlns="http://www.w3.org/2000/svg">
  <g>
    <path d="M24.79,39.51c-6.55-1.54-12.52-5.44-16.49-10.92l-1.05-1.45c-0.72-1-0.5-2.4,0.5-3.12l2.9-2.1 c1-0.72,2.4-0.5,3.12,0.5l1.05,1.45c3.43,4.73,8.95,7.82,14.77,8.26l4.01,0.31l-0.62,8.03l-4.01-0.31 C27.57,40.05,26.17,39.84,24.79,39.51z" fill="#874D36"/>
    <path d="M24.79,39.51c-6.55-1.54-12.52-5.44-16.49-10.92l-1.05-1.45c-0.72-1-0.5-2.4,0.5-3.12l2.9-2.1 c1-0.72,2.4-0.5,3.12,0.5l1.05,1.45c3.43,4.73,8.95,7.82,14.77,8.26l4.01,0.31l-0.62,8.03l-4.01-0.31 C27.57,40.05,26.17,39.84,24.79,39.51z" fill="#874D36"/>
    <path d="M10.65,21.92c-0.85,0.62-1.27,0.92-2.29,1.66c-1.25,0.91,2.35,5.79,6.14,8.45 c1.44,1.01,5.66,1.6,6.27-0.91c0.14-0.58-0.06-1.21-0.4-1.71c-0.58-0.84-1.52-1.4-2.29-2.05c-1.22-1.03-2.32-2.2-3.26-3.49 l-1.05-1.45C13.05,21.42,11.65,21.2,10.65,21.92z" fill="#DE7340"/>
    <path d="M25.3,31.32c1.32,1.96,2.09,5.41,2.06,7.77l3.29-2.87c-0.75-3.48-1.34-4.15-1.34-4.15 C27.74,31.95,25.3,31.32,25.3,31.32z" fill="#4E342E"/>
    <path d="M31.82,44.63l-0.5-3.99c-1.44-11.58-7.69-22.01-17.21-28.75l-1.32-0.93 c-1.09-0.77-1.34-2.27-0.57-3.36l1.87-2.64c0.77-1.09,2.27-1.34,3.36-0.58l1.31,0.93c11.37,8.05,18.83,20.5,20.56,34.33l0.5,3.99 L31.82,44.63z" fill="#874D36"/>
    <path d="M31.82,44.63l-0.5-3.99c-1.44-11.58-7.69-22.01-17.21-28.75l-1.32-0.93 c-1.09-0.77-1.34-2.27-0.57-3.36l1.87-2.64c0.77-1.09,2.27-1.34,3.36-0.58l1.31,0.93c11.37,8.05,18.83,20.5,20.56,34.33l0.5,3.99 L31.82,44.63z" fill="#874D36"/>
    <path d="M19.37,51.87c0,0,21.7,52.08,76.53,70.44c2.24,0.75,4.42-1.29,3.87-3.59l-5.63-23.09 c-0.21-0.87,0.4-1.72,1.3-1.81c9.71-0.92,17.94-2.74,23.25-4.15c2.51-0.66,3.07-3.98,0.91-5.41 c-40.34-26.75-63.1-62.61-63.1-62.61c-1.79-2.2-5.02-2.53-7.22-0.74L20.11,44.66C17.02,47.08,19.37,51.87,19.37,51.87z M39.85,47.95c-1.96-2.41-1.6-5.95,0.81-7.91s5.95-1.6,7.91,0.81c1.96,2.41,1.6,5.95-0.81,7.91 C45.35,50.72,41.81,50.36,39.85,47.95z" fill="#F44336"/>
    <path d="M39.65,44.12c-0.31,0.05-0.62,0.05-0.91-0.05c-1.09-0.37-1.04-1.84-1.48-2.73 c-0.53-1.07-1.26-2.03-2.1-2.88c-0.9-0.92-1.93-1.82-3.19-2.19c-0.58-0.17-1.14-0.14-1.69,0.07c0.13-0.53-0.03-1.09,0.1-1.65 c0.32-1.41,1.39-2.74,2.54-3.57c0.9-0.66,1.88-1.28,2.96-1.58c1.17-0.32,2.01-0.02,3.07,0.5c1.89,0.93,3.53,2.38,4.71,4.13 c1.61,2.39,2.66,5.04,0.34,7.31c-0.96,0.94-2.08,1.72-3.29,2.29C40.36,43.91,40.01,44.05,39.65,44.12z" fill="#874D36"/>
    <path d="M35.51,30.74c1.21-0.44,2.74-0.22,3.73,0.2c0.47,0.2,1.47,1.11,1.48,1.81c0,1.06-0.93,1.88-2.1,2.68 c-1.04,0.79-2.04,1.1-3.22,0.4c-1.04-0.56-3.69-1.03-3.42-1.93C32.38,32.51,34.22,31.21,35.51,30.74z" fill="#DE7340"/>
    <path d="M11.79,9.42c0,0,0.28-0.84,1.03-0.96c0.75-0.12,4.94,2.34,8.98,6.54c2.69,2.8,7.56,10,8.37,10.43 c0.57,0.3,1.27,0.45,1.85,0.17c0.89-0.44,1.05-1.64,0.93-2.63c-0.48-3.79-2.75-6.6-5.18-9.44c-2.65-3.1-5.69-5.87-9.02-8.23 l-1.31-0.93c-1.09-0.77-2.28-0.87-3.37,0.37C14.06,4.75,11.24,7.93,11.79,9.42z" fill="#DE7340"/>
    <polygon points="65.44,68.48 72.52,71.71 79.2,67.71 78.31,75.45 84.18,80.56 76.55,82.11 73.5,89.27 69.67,82.49 61.91,81.81 67.18,76.07 " fill="#FCEBCD"/>
    <polygon points="65.44,68.48 72.52,71.71 79.2,67.71 78.31,75.45 84.18,80.56 76.55,82.11 73.5,89.27 69.67,82.49 61.91,81.81 67.18,76.07 " fill="#FCEBCD"/>
  </g>
</svg>

<svg viewBox="0 0 128 128" xmlns="http://www.w3.org/2000/svg">
  <defs/>
  <path d="M24.79,39.51 C18.24,37.97 12.27,34.07 8.3,28.59 L7.25,27.14 C6.53,26.14 6.75,24.74 7.75,24.02 L10.65,21.92 C11.65,21.2 13.05,21.42 13.77,22.42 L14.82,23.87 C18.25,28.6 23.77,31.69 29.59,32.13 L33.6,32.44 L32.98,40.47 L28.97,40.16 C27.57,40.05 26.17,39.84 24.79,39.51 Z" fill="#874D36"/>
  <path d="M24.79,39.51 C18.24,37.97 12.27,34.07 8.3,28.59 L7.25,27.14 C6.53,26.14 6.75,24.74 7.75,24.02 L10.65,21.92 C11.65,21.2 13.05,21.42 13.77,22.42 L14.82,23.87 C18.25,28.6 23.77,31.69 29.59,32.13 L33.6,32.44 L32.98,40.47 L28.97,40.16 C27.57,40.05 26.17,39.84 24.79,39.51 Z" fill="#874D36"/>
  <path d="M10.65,21.92 C9.8,22.54 9.38,22.84 8.36,23.58 C7.11,24.49 10.71,29.37 14.5,32.03 C15.94,33.04 20.16,33.63 20.77,31.12 C20.91,30.54 20.71,29.91 20.37,29.41 C19.79,28.57 18.85,28.01 18.08,27.36 C16.86,26.33 15.76,25.16 14.82,23.87 L13.77,22.42 C13.05,21.42 11.65,21.2 10.65,21.92 Z" fill="#DE7340"/>
  <path d="M25.3,31.32 C26.62,33.28 27.39,36.73 27.36,39.09 L30.65,36.22 C29.9,32.74 29.31,32.07 29.31,32.07 C27.74,31.95 25.3,31.32 25.3,31.32 Z" fill="#4E342E"/>
  <path d="M31.82,44.63 L31.32,40.64 C29.88,29.06 23.63,18.63 14.11,11.89 L12.79,10.96 C11.7,10.19 11.45,8.69 12.22,7.6 L14.09,4.96 C14.86,3.87 16.36,3.62 17.45,4.38 L18.76,5.31 C30.13,13.36 37.59,25.81 39.32,39.64 L39.82,43.63 L31.82,44.63 Z" fill="#874D36"/>
  <path d="M31.82,44.63 L31.32,40.64 C29.88,29.06 23.63,18.63 14.11,11.89 L12.79,10.96 C11.7,10.19 11.45,8.69 12.22,7.6 L14.09,4.96 C14.86,3.87 16.36,3.62 17.45,4.38 L18.76,5.31 C30.13,13.36 37.59,25.81 39.32,39.64 L39.82,43.63 L31.82,44.63 Z" fill="#874D36"/>
  <path d="M19.37,51.87 C19.37,51.87 41.07,103.95 95.9,122.31 C98.14,123.06 100.32,121.02 99.77,118.72 L94.14,95.63 C93.93,94.76 94.54,93.91 95.44,93.82 C105.15,92.9 113.38,91.08 118.69,89.67 C121.2,89.01 121.76,85.69 119.6,84.26 C79.26,57.51 56.5,21.65 56.5,21.65 C54.71,19.45 51.48,19.12 49.28,20.91 L20.11,44.66 C17.02,47.08 19.37,51.87 19.37,51.87 Z M39.85,47.95 C37.89,45.54 38.25,42 40.66,40.04 C43.07,38.08 46.61,38.44 48.57,40.85 C50.53,43.26 50.17,46.8 47.76,48.76 C45.35,50.72 41.81,50.36 39.85,47.95 Z" fill="#F44336"/>
  <path d="M39.65,44.12 C39.34,44.17 39.03,44.17 38.74,44.07 C37.65,43.7 37.7,42.23 37.26,41.34 C36.73,40.27 36,39.31 35.16,38.46 C34.26,37.54 33.23,36.64 31.97,36.27 C31.39,36.1 30.83,36.13 30.28,36.34 C30.41,35.81 30.25,35.25 30.38,34.69 C30.7,33.28 31.77,31.95 32.92,31.12 C33.82,30.46 34.8,29.84 35.88,29.54 C37.05,29.22 37.89,29.52 38.95,30.04 C40.84,30.97 42.48,32.42 43.66,34.17 C45.27,36.56 46.32,39.21 44,41.48 C43.04,42.42 41.92,43.2 40.71,43.77 C40.36,43.91 40.01,44.05 39.65,44.12 Z" fill="#874D36"/>
  <path d="M35.51,30.74 C36.72,30.3 38.25,30.52 39.24,30.94 C39.71,31.14 40.71,32.05 40.72,32.75 C40.72,33.81 39.79,34.63 38.62,35.43 C37.58,36.22 36.58,36.53 35.4,35.83 C34.36,35.27 31.71,34.8 31.98,33.9 C32.38,32.51 34.22,31.21 35.51,30.74 Z" fill="#DE7340"/>
  <path d="M11.79,9.42 C11.79,9.42 12.07,8.58 12.82,8.46 C13.57,8.34 17.76,10.8 21.8,15 C24.49,17.8 29.36,25 30.17,25.43 C30.74,25.73 31.44,25.88 32.02,25.6 C32.91,25.16 33.07,23.96 32.95,22.97 C32.47,19.18 30.2,16.37 27.77,13.53 C25.12,10.43 22.08,7.66 18.75,5.3 L17.44,4.37 C16.35,3.6 15.16,3.5 14.07,4.74 C14.06,4.75 11.24,7.93 11.79,9.42 Z" fill="#DE7340"/>
  <path d="M65.44,68.48 L72.52,71.71 L79.2,67.71 L78.31,75.45 L84.18,80.56 L76.55,82.11 L73.5,89.27 L69.67,82.49 L61.91,81.81 L67.18,76.07 Z" fill="#FCEBCD"/>
  <path d="M65.44,68.48 L72.52,71.71 L79.2,67.71 L78.31,75.45 L84.18,80.56 L76.55,82.11 L73.5,89.27 L69.67,82.49 L61.91,81.81 L67.18,76.07 Z" fill="#FCEBCD"/>
</svg>
